icons/desktop/20/leaf-20.svg

<svg width="20" height="20" viewBox="0 0 20 20" fill="none" xmlns="http://www.w3.org/2000/svg">
<path fill-rule="evenodd" clip-rule="evenodd" d="M15.5831 1C17.4702 1.00026 19.0001 2.52991 19.0001 4.41699V9.5C19.0001 14.6262 14.4596 18.6916 9.19251 17.9023L8.68079 17.8105C7.23058 17.5081 5.90752 16.8151 4.82923 15.8516C4.39982 16.4167 3.99298 16.9986 3.61145 17.5957C3.44452 17.8566 3.16204 17.9999 2.87415 18C2.71315 18 2.54945 17.9563 2.40345 17.8623C1.99662 17.6023 1.87802 17.0612 2.13782 16.6543C2.60267 15.9265 3.10376 15.2206 3.63489 14.5381C2.93845 13.5909 2.43523 12.4972 2.18958 11.3193C1.04739 5.83802 5.20858 1.00011 10.5001 1H15.5831ZM10.5001 2.75C6.29811 2.75011 2.99128 6.5877 3.90247 10.9619C4.06542 11.7433 4.37369 12.4792 4.79602 13.1396C5.16458 12.7244 5.54448 12.3192 5.93665 11.9268C7.36864 10.4958 8.95921 9.21792 10.6642 8.12793C11.0701 7.86721 11.6122 7.98578 11.8722 8.39355C12.1322 8.80054 12.0126 9.34155 11.6056 9.60156C10.0066 10.6236 8.51594 11.8221 7.17395 13.1641C6.74588 13.5925 6.33351 14.037 5.93567 14.4941C6.80008 15.2848 7.86882 15.8538 9.03821 16.0977C13.4124 17.0087 17.2501 13.702 17.2501 9.5V4.41699C17.2501 3.49641 16.5037 2.75026 15.5831 2.75H10.5001Z" fill="black"/>
</svg>

<!-- This Source Code Form is subject to the terms of the Mozilla Public
   - License, v. 2.0. If a copy of the MPL was not distributed with this
   - file, You can obtain one at http://mozilla.org/MPL/2.0/. -->
<svg xmlns="http://www.w3.org/2000/svg" width="20" height="20" fill="context-fill" fill-opacity="context-fill-opacity" viewBox="0 0 20 20">
    <path fill-rule="evenodd" d="M15.583 1A3.417 3.417 0 0 1 19 4.417V9.5a8.505 8.505 0 0 1-9.807 8.402l-.512-.091a8.35 8.35 0 0 1-3.852-1.96q-.645.85-1.218 1.745a.875.875 0 1 1-1.473-.942q.699-1.091 1.497-2.116A8.3 8.3 0 0 1 2.19 11.32C1.047 5.838 5.209 1 10.5 1zM10.5 2.75c-4.202 0-7.509 3.838-6.598 8.212.163.781.472 1.517.894 2.178q.553-.624 1.14-1.213a28 28 0 0 1 4.728-3.8.874.874 0 1 1 .942 1.475 26.3 26.3 0 0 0-5.67 4.892 6.6 6.6 0 0 0 3.102 1.604c4.374.91 8.212-2.396 8.212-6.598V4.417c0-.92-.746-1.667-1.667-1.667z" clip-rule="evenodd" />
</svg>
